arkscan/icons/guardarian.svg

<svg viewBox="0 0 20 21" fill="none" xmlns="http://www.w3.org/2000/svg">
  <path
    d="M6.33203 8.59961C6.53835 9.63088 7.01976 10.5934 7.70748 11.4871L14.153 11.4873C14.1597 11.4873 14.1558 11.4942 14.153 11.4977C13.2224 13.0792 11.9036 14.3397 10.1832 15.1996C11.2148 15.7496 12.3839 16.1621 13.553 16.3684C15.2036 15.0621 16.4415 13.4121 17.2667 11.6246C17.6793 10.6621 17.9544 9.63088 18.0919 8.59961H6.33203Z"
    fill="#2C52D1" />
  <path
    d="M10.5965 18.2938C11.628 17.7438 12.5908 17.125 13.4848 16.4375C12.3157 16.2312 11.1466 15.8187 10.0462 15.2688C7.15787 13.55 5.30102 11.075 4.95718 8.32502C4.88842 7.98123 4.88842 7.63748 4.88842 7.29374V4.87903H15.2823V7.56452H18.1613V2H2V7.22498C2 11.7625 4.81961 15.8187 9.56484 18.225L10.0462 18.5L10.5965 18.2938Z"
    fill="#1932AE" />
</svg>

<svg viewBox="0 0 20 21" fill="none" xmlns="http://www.w3.org/2000/svg"><path d="M6.332 8.6c.206 1.03.688 1.993 1.375 2.887h6.446c.007 0 .003.007 0 .01a9.408 9.408 0 0 1-3.97 3.703c1.032.55 2.2.962 3.37 1.168a12.956 12.956 0 0 0 3.714-4.743c.412-.963.687-1.994.825-3.025H6.332Z" fill="#2C52D1"/><path d="M10.597 18.294a20.714 20.714 0 0 0 2.888-1.857c-1.17-.206-2.338-.618-3.439-1.168-2.888-1.719-4.745-4.194-5.089-6.944-.069-.344-.069-.688-.069-1.031V4.879h10.394v2.686h2.88V2H2v5.225c0 4.537 2.82 8.594 7.565 11l.481.275.55-.206Z" fill="#1932AE"/></svg>
